X:153
T: Spatter the Dew
N: O'Farrell's Pocket Companion v.2 (Sky ed. p.78-9)
N: "Irish"
N: I have changed the OFPC key signature of A to D.
M: 9/8
L: 1/8
Q: 320
K: D
FAF FEF d3|F/G/AF FEF AFE|FAF FEF dfa|edc BAF AFE :|
A2d cec d2B|A2d cea fdB|A2d ece dfa|edc BAF AFE :|
dAF F/G/AF d3|dAF FAF AFE|dAF FEF dfa|ecA BAF AFE :|
Ace Ace d3|Ace Ace fdB|Ace Ace dfa|edc BAF AFE :|
